exported-svg/smile.svg

<svg height="24" viewBox="0 0 24 24" width="24" xmlns="http://www.w3.org/2000/svg"><path d="m12.5 23c-5.79898987 0-10.5-4.7010101-10.5-10.5 0-5.79898987 4.70101013-10.5 10.5-10.5 5.7989899 0 10.5 4.70101013 10.5 10.5 0 5.7989899-4.7010101 10.5-10.5 10.5zm0-1c5.2467051 0 9.5-4.2532949 9.5-9.5 0-5.24670512-4.2532949-9.5-9.5-9.5-5.24670512 0-9.5 4.25329488-9.5 9.5 0 5.2467051 4.25329488 9.5 9.5 9.5zm-4.4-7.2c-.16568542-.2209139-.1209139-.5343146.1-.7s.53431458-.1209139.7.1c.03531045.0470806.11427834.14117.2344316.2665473.20500062.2139137.44667955.4287394.72215425.6290847.77967285.5670348 1.66517255.904368 2.64341415.904368s1.8637413-.3373332 2.6434142-.904368c.2754747-.2003453.5171536-.415171.7221542-.6290847.1201533-.1253773.1991211-.2194667.2344316-.2665473.1656854-.2209139.4790861-.2656854.7-.1s.2656854.4790861.1.7c-.2151909.2869212-.6079531.69676-1.1684142 1.104368-.9390771.6829652-2.0223274 1.095632-3.2315858 1.095632s-2.2925087-.4126668-3.23158585-1.095632c-.56046108-.407608-.95322326-.8174468-1.16841415-1.104368zm1.4-4.8c-.27614237 0-.5-.22385763-.5-.5s.22385763-.5.5-.5h.01c.27614237 0 .5.22385763.5.5s-.22385763.5-.5.5zm6 0c-.2761424 0-.5-.22385763-.5-.5s.2238576-.5.5-.5h.01c.2761424 0 .5.22385763.5.5s-.2238576.5-.5.5z"/></svg>

<?xml version="1.0" encoding="UTF-8"?>
<svg width="24px" height="24px" viewBox="0 0 24 24" version="1.1" xmlns="http://www.w3.org/2000/svg" xmlns:xlink="http://www.w3.org/1999/xlink">
    <!-- Generator: Sketch 55.2 (78181) - https://sketchapp.com -->
    <title>smile</title>
    <desc>Created with Sketch.</desc>
    <g id="smile" stroke="none" stroke-width="1" fill="none" fill-rule="evenodd">
        <path d="M12.5,23 C6.70101013,23 2,18.2989899 2,12.5 C2,6.70101013 6.70101013,2 12.5,2 C18.2989899,2 23,6.70101013 23,12.5 C23,18.2989899 18.2989899,23 12.5,23 Z M12.5,22 C17.7467051,22 22,17.7467051 22,12.5 C22,7.25329488 17.7467051,3 12.5,3 C7.25329488,3 3,7.25329488 3,12.5 C3,17.7467051 7.25329488,22 12.5,22 Z M8.1,14.8 C7.93431458,14.5790861 7.9790861,14.2656854 8.2,14.1 C8.4209139,13.9343146 8.73431458,13.9790861 8.9,14.2 C8.93531045,14.2470806 9.01427834,14.34117 9.1344316,14.4665473 C9.33943222,14.680461 9.58111115,14.8952867 9.85658585,15.095632 C10.6362587,15.6626668 11.5217584,16 12.5,16 C13.4782416,16 14.3637413,15.6626668 15.1434142,15.095632 C15.4188889,14.8952867 15.6605678,14.680461 15.8655684,14.4665473 C15.9857217,14.34117 16.0646895,14.2470806 16.1,14.2 C16.2656854,13.9790861 16.5790861,13.9343146 16.8,14.1 C17.0209139,14.2656854 17.0656854,14.5790861 16.9,14.8 C16.6848091,15.0869212 16.2920469,15.49676 15.7315858,15.904368 C14.7925087,16.5873332 13.7092584,17 12.5,17 C11.2907416,17 10.2074913,16.5873332 9.26841415,15.904368 C8.70795307,15.49676 8.31519089,15.0869212 8.1,14.8 Z M9.5,10 C9.22385763,10 9,9.77614237 9,9.5 C9,9.22385763 9.22385763,9 9.5,9 L9.51,9 C9.78614237,9 10.01,9.22385763 10.01,9.5 C10.01,9.77614237 9.78614237,10 9.51,10 L9.5,10 Z M15.5,10 C15.2238576,10 15,9.77614237 15,9.5 C15,9.22385763 15.2238576,9 15.5,9 L15.51,9 C15.7861424,9 16.01,9.22385763 16.01,9.5 C16.01,9.77614237 15.7861424,10 15.51,10 L15.5,10 Z" id="Combined-Shape" fill="#000000" fill-rule="nonzero"></path>
    </g>
</svg>
